X: 1
T:BONNIE GALLOWAY
M:C
L:1/8
Q:80
C:Traditional
S:March
K:HP
[| {g}f3c{gef}e2d2|
{g}Bd3{e}A4|
{g}A3B{Gdc}d2f2|  !
{g}e3f{gef}e4|
{g}f3c{gef}e2d2|
{g}Bd3{e}A4|  !
{g}A3B{Gdc}d2f2|
{g}e3d{gdc}d4|] [|
a3{g}a{fg}f2{Gdc}d2|  !
{ag}a2d2{gfg}f4|
a3{g}a{fg}f2{Gdc}d2|
{gcd}c{e}B{g}cd{gef}e2{AGAG}A2|  !
{g}f3c{gef}e2d2|
{g}Bd3{e}A4|
{g}A3B{Gdc}d2f2|  !
{g}e3d{gdc}d4|]
